X:1
T:Title
%%score { ( 1 3 ) | ( 2 4 ) }
L:1/8
M:3/4
K:C
V:1 treble nm="Grand Piano"
V:3 treble 
V:2 bass 
V:4 bass 
V:1
 z2 z2[Q:1/4=96] [EG]2 | [CE][EG] [Ec]2 [EG]2 | [GB]2 [FA]2 [FA]2 | B3 A GA |[M:2/4] [EG]4 | %5
[M:1/4] [DE]2 |[M:3/4] z2 z2 [Ec]2[K:bass] | c2 B2 B2 | A3 B [^Fc][FA] |[M:2/4] d4 |[M:1/4] G2 | %11
[M:3/4] [Ge]3 [Fd] [Ec]E | G2 z2 .[CG]2 | [CEA]3 [A,CE] [A,DF][A,DG] |[M:2/4] [A,CA]4 | %15
[M:1/4] [CEA]2 |[M:3/4] [Ff]3 [FA] BG | c2 z2 z2 | %18
[M:33/32] z/4 z/4 z/4 z/4 z/4 z/4 z/4 z/4 z/4 z/4 z/4 z/4 z/4 z/4 z/4 z/4 z/4 z/4 z/4 z/4 z/ d/4-d/4-d/4-d/4-d/4-d/4-d/-<d/ z/4 | %19
[M:2/4] [Ec]4 |] %20
V:2
 z2 z2 [C,C]2 | [C,G,][C,G,] [C,G,]2 [C,C]2 | [F,C]2 [F,C]2 [D,D]2 | %3
 [G,DF]3 [G,B,F] [G,CE][G,B,F] |[M:2/4][K:bass] [C,C]4 |[M:1/4] [B,,^G,]2 | %6
[M:3/4] [A,,A,][A,,A,] [C,A,]2 .[A,,A,]2 | [E,A,E]2 [E,^G,D]2 [G,DE]2 | [A,CE]3 [A,DE] [D,D][D,C] | %9
[M:2/4][K:treble] [G,B,F]4 |[M:1/4] [G,B,]2 |[M:3/4][K:bass] [C,C]3 [C,G,] [C,G,][^C,A,] | %12
 [D,B,D]G,, C,2 C,B,, | A,,3 A,, D,D, |[M:2/4] A,,4 |[M:1/4] A,2 | %16
[M:3/4] [D,D]3 [D,D][K:treble] [G,DF][B,DF] | [CE]2 [A,CE]2 [^G,_E^F]2 | %18
[M:33/32] [G,EG]/4-[G,EG]/4-[G,EG]/4-[G,EG]/4-[G,EG]/4-[G,EG]/4-[G,EG]/4-[G,EG]/4-[G,EG]/4-[G,EG]/4-[G,EG]/4-[G,EG]/4-[G,EG]/4-[G,EG]/4-[G,EG]/-<[G,EG]/[K:bass][G,CE]/-<[G,CE]/G,/4-G,/4-G,/4-G,/4-G,/-<G,/[C,G,]3/4 | %19
[M:2/4] [C,G,]4 |] %20
V:3
 x6 | x6 | x6 | x6 |[M:2/4] x4 |[M:1/4] x2 |[M:3/4] [CE][CA] [EA]2 z[K:bass] C, | x6 | x6 | %9
[M:2/4] x4 |[M:1/4] x2 |[M:3/4] x6 | z [DF] [CEG]2 E-[DE^G] | x6 |[M:2/4] x4 |[M:1/4] x2 | %16
[M:3/4] x6 | z _B, c2 c2 | %18
[M:33/32] c/4-c/4-c/4-c/4-c/4-c/4-c/4-c/4-c/4-c/4-c/4-c/4-c/4-c/4-c/-<c/G/-<G/ z/4 z/4 z/4 z/4 z/4 z/4 z/ [Ec]3/4 | %19
[M:2/4] x4 |] %20
V:4
 x6 | x6 | x6 | x6 |[M:2/4][K:bass] x4 |[M:1/4] x2 |[M:3/4] x6 | x6 | x6 |[M:2/4][K:treble] x4 | %10
[M:1/4] x2 |[M:3/4][K:bass] x6 | x6 | x6 |[M:2/4] x4 |[M:1/4] x2 |[M:3/4] x4[K:treble] x2 | x6 | %18
[M:33/32] z/4 z/4 z/4 z/4 z/4 z/4 z/4 z/4 z/4 z/4 z/4 z/4 z/4 z/4 z/4 z/4 z/4 z/4[K:bass] z/4 z/4 z/ [G,,B,F]/4-[G,,B,F]/4-[G,,B,F]/4-[G,,B,F]/4-[G,,B,F]/4-[G,,B,F]/4-[G,,B,F]/-<[G,,B,F]/ z/4 | %19
[M:2/4] x4 |] %20

